X: 88
T:A Honeyed Lip
M:4/4
L:1/8
Q:150
S:Michael Raven (Hynde Horn)
R:
A:Wales
Z:brian_martin12345@yahoo.com
K:Em
z|G2F2EB3|c2BA Bd3|ecBA G2F2|FE3z3:||
G|FEDE FGAF|GFEF GABG|AGFG ABcA|
Beefg2fe|^de3-e4|ecBAG2F2|FE3z3:||

